src/assets/svgs/facebook.svg

<svg xmlns="http://www.w3.org/2000/svg" width="20" height="21" viewBox="0 0 20 21" fill="none">
<path d="M14.3447 11.6068L14.863 8.19418H11.621V5.98058C11.621 5.04672 12.0731 4.13592 13.5251 4.13592H15V1.23058C15 1.23058 13.6621 1 12.3836 1C9.71233 1 7.96804 2.63483 7.96804 5.5932V8.19418H5V11.6068H7.96804V19.857C8.56393 19.9516 9.17352 20 9.79452 20C10.4155 20 11.0251 19.9516 11.621 19.857V11.6068H14.3447Z" fill="#767676"/>
</svg>

<svg xmlns="http://www.w3.org/2000/svg" width="20" height="21" fill="none"><path d="m14.345 11.607.518-3.413h-3.242V5.981c0-.934.452-1.845 1.904-1.845H15V1.23S13.662 1 12.384 1C9.712 1 7.968 2.635 7.968 5.593v2.601H5v3.413h2.968v8.25a11.639 11.639 0 0 0 3.653 0v-8.25h2.724Z" fill="#767676"/></svg>
